icons/t-shirt-2-line.svg

<svg xmlns="http://www.w3.org/2000/svg" width="24" height="24" fill="none"><g clip-path="url(#a)"><g><path fill="#121212" d="M9 3C9 3.79565 9.31607 4.55871 9.87868 5.12132C10.4413 5.68393 11.2044 6 12 6C12.7956 6 13.5587 5.68393 14.1213 5.12132C14.6839 4.55871 15 3.79565 15 3H21C21.2652 3 21.5196 3.10536 21.7071 3.29289C21.8946 3.48043 22 3.73478 22 4V11C22 11.2652 21.8946 11.5196 21.7071 11.7071C21.5196 11.8946 21.2652 12 21 12H18.999L19 20C19 20.2652 18.8946 20.5196 18.7071 20.7071C18.5196 20.8946 18.2652 21 18 21H6C5.73478 21 5.48043 20.8946 5.29289 20.7071C5.10536 20.5196 5 20.2652 5 20L4.999 11.999L3 12C2.73478 12 2.48043 11.8946 2.29289 11.7071C2.10536 11.5196 2 11.2652 2 11V4C2 3.73478 2.10536 3.48043 2.29289 3.29289C2.48043 3.10536 2.73478 3 3 3H9ZM20 4.999H16.583L16.566 5.04C16.1868 5.88785 15.579 6.61337 14.8107 7.13528C14.0424 7.65719 13.1439 7.95488 12.216 7.995L12 8C11.0344 8.00009 10.0894 7.72063 9.27918 7.19537C8.46894 6.67012 7.82808 5.92153 7.434 5.04L7.416 5H4V10L6.999 9.999V19H17L16.999 10L20 9.999V4.999Z"/></g></g><defs><clipPath id="a"><rect width="24" height="24" fill="white"/></clipPath></defs></svg>

<svg width="24" height="24" fill="none" xmlns="http://www.w3.org/2000/svg"><g clip-path="url(#a)"><path d="M9 3a3 3 0 1 0 6 0h6a1 1 0 0 1 1 1v7a1 1 0 0 1-1 1h-2.001L19 20a1 1 0 0 1-1 1H6a1 1 0 0 1-1-1l-.001-8.001L3 12a1 1 0 0 1-1-1V4a1 1 0 0 1 1-1h6Zm11 1.999h-3.417l-.017.041a5.002 5.002 0 0 1-4.35 2.955L12 8a5 5 0 0 1-4.566-2.96L7.416 5H4v5l2.999-.001V19H17l-.001-9L20 9.999v-5Z" /></g><defs><clipPath id="a"><path fill="#fff" d="M0 0h24v24H0z"/></clipPath></defs></svg>
